.local/share/icons/Gruvbox-Plus-Dark/panel/16/network-cellular-evdo.svg

<svg width="16" height="16" version="1.1" xmlns="http://www.w3.org/2000/svg">
  <defs>
    <style id="current-color-scheme" type="text/css">.ColorScheme-Text { color:#ebdbb2; } .ColorScheme-Highlight { color:#458588; } .ColorScheme-NeutralText { color:#fe8019; } .ColorScheme-PositiveText { color:#689d6a; } .ColorScheme-NegativeText { color:#fb4934; }</style>
  </defs>
  <path class="ColorScheme-Text" d="m2 1s-2 0-2 2.06v9.94c0 2 2 2 2 2h12c2 0 2-2 2-2v-10s0-2-2-2zm1 2h4v2h-4v2h3v2h-3v2h4v2h-4s-2 0-2-2v-6c0-2 2-2 2-2zm5 0h2c0.5 2.67 1 8 1 8h1l1-8h2l-1 8s0 2-2 2h-1s-2 0-2-2z" fill="currentColor"/>
</svg>

<svg xmlns="http://www.w3.org/2000/svg" width="16" height="16" version="1.1">
 <defs>
  <style id="current-color-scheme" type="text/css">
   .ColorScheme-Text { color:#ebdbb2; } .ColorScheme-Highlight { color:#458588; }
  </style>
 </defs>
 <path style="fill:currentColor" class="ColorScheme-Text" d="M 1,1 C 1,1 -1,1 -1,3.06 V 13 C -1,15 1,15 1,15 H 15 C 17,15 17,13 17,13 V 3 C 17,3 17,1 15,1 Z M 3,3 H 7 V 5 H 3 V 7 H 6 V 9 H 3 V 11 H 7 V 13 H 3 C 3,13 1,13 1,11 V 5 C 1,3 3,3 3,3 Z M 8,3 H 10 C 10.5,5.67 11,11 11,11 H 12 L 13,3 H 15 L 14,11 C 14,11 14,13 12,13 H 11 C 11,13 9,13 9,11 Z"/>
</svg>
